X: 29037
T: Ned Of The Hill
R: waltz
M: 3/4
K: Gmajor
BA|G2 A/A/G EF|G3G G/F/G/A/|Bg3 f>d|e4 f>e|
d2 B2 B<A|G3G/G/ F/G/A/B/|c3B A<G|E2 D>e e//d//B//A//|
G2 A/A/G E>F|G2 G2 G/F/G/A/|Bg3 f>d|e4 f{fgf}f/e/|
d2 B2 B<A|G2 GF G/A/B/G/|A2 G2 F2|G4||
Bd|e3c g2|B4 B/A/B/d/|e2 f3e|d4 B>c|d3B B<A|
G2 G>F G/A/B|c3B A<G|E2 D>e e//d//B//A//|
G2 A/A/G EF|G3G G/F/G/A/|Bg3 bg/d/|e4 f{fgf}f/e/|
d2 B2 B<A|G2 G>F G/A/B/G/|A2 G2 F2|G4||

